X: 2
T: Old French Reel
R: reel
Z: 1997 by John Chambers <jc:trillian.mit.edu>
M: C|
L: 1/8
K: D
|: ((3ABc) \
| "D"d2cd BdAF | DFAd f2ed | "A7"cdef gece |1,3 "D"defd A2 :|2,4 "D"d2f2 d2 :|
|: cd \
| "A"efed c2A2 | AEAc e2dc | "G"BGBd gfed |1,3 "A"cAce a2 :|2,4 "A"c2A2 A2 :|

%%sep 1 1 500

